icons/container-16.svg

<svg width="16" height="16" viewBox="0 0 16 16" fill="none" xmlns="http://www.w3.org/2000/svg">
<path fill-rule="evenodd" clip-rule="evenodd" d="M10.4092 0.240089L15.1215 3.01362C15.3961 3.17345 15.6175 3.40109 15.7692 3.66806C15.9179 3.92977 16 4.22983 16 4.54135V9.55161C16 10.1815 15.6648 10.7638 15.1201 11.0802L15.1192 11.0807L7.36676 15.6022L7.36519 15.6031C7.09131 15.762 6.78522 15.8415 6.47942 15.8417C6.17288 15.8419 5.86598 15.7623 5.59145 15.6031L5.58972 15.6021L0.872951 12.8495C0.331326 12.5335 0 11.953 0 11.3272V6.2921C0 5.98784 0.0783391 5.69436 0.220821 5.43702L0.223681 5.4319L0.23433 5.41307C0.384757 5.1511 0.602819 4.92733 0.873114 4.76969L8.64203 0.238591C9.18748 -0.0795303 9.86115 -0.0795303 10.4066 0.238591L10.4092 0.240089ZM9.39774 1.53432C9.4759 1.48873 9.57172 1.48856 9.65001 1.53381L9.65088 1.53432L13.7651 3.95577L6.61261 8.10419C6.57112 8.12826 6.52497 8.14029 6.47849 8.14032C6.4319 8.14035 6.38563 8.12832 6.34403 8.10419L2.22719 5.71642L9.39774 1.53432ZM7.36519 9.40174L8.72903 8.61071V13.0712L7.22903 13.946V9.473C7.27518 9.45135 7.32061 9.42759 7.36519 9.40174ZM10.229 12.1963V7.74071L11.75 6.85855V11.3093L10.229 12.1963ZM13.25 10.4344L14.3651 9.78406L14.3666 9.78315C14.4492 9.73527 14.5 9.64705 14.5 9.55161V5.26355L13.25 5.98855V10.4344ZM1.62899 11.554L5.72895 13.9466V9.47363C5.68234 9.45181 5.63646 9.42784 5.59145 9.40174L1.5 7.02869V11.3272C1.5 11.4223 1.55052 11.5082 1.62899 11.554Z" fill="#24292E"/>
</svg>

<svg xmlns="http://www.w3.org/2000/svg" width="16" height="16" viewBox="0 0 16 16"><path fill-rule="evenodd" d="M10.41.24l4.711 2.774A1.767 1.767 0 0116 4.54v5.01a1.77 1.77 0 01-.88 1.53l-7.753 4.521-.002.001a1.767 1.767 0 01-1.774 0H5.59L.873 12.85A1.762 1.762 0 010 11.327V6.292c0-.304.078-.598.22-.855l.004-.005.01-.019c.15-.262.369-.486.64-.643L8.641.239a1.75 1.75 0 011.765 0l.002.001zM9.397 1.534a.25.25 0 01.252 0l4.115 2.422-7.152 4.148a.267.267 0 01-.269 0L2.227 5.716l7.17-4.182zM7.365 9.402L8.73 8.61v4.46l-1.5.875V9.473a1.77 1.77 0 00.136-.071zm2.864 2.794V7.741l1.521-.882v4.45l-1.521.887zm3.021-1.762l1.115-.65h.002a.268.268 0 00.133-.232V5.264l-1.25.725v4.445zm-11.621 1.12l4.1 2.393V9.474a1.77 1.77 0 01-.138-.072L1.5 7.029v4.298c0 .095.05.181.129.227z"/></svg>
